X: 42015
T: Walter Bulwer's
R: polka
M: 2/4
K: Gmajor
M:4/4
|:B,C|D2 G2 G2 FG|A2 E2 E4|FG A2 FG A2|B2 G2 G2 FE|
D2 G2 G2 FG|A2 E2 E2 G2|FG A2 D2 EF|G4 G2:|
K: DMaj
|:FG|A2 A2 B4|A2 A2 F4|G2 G2 EFGE|ABAG FGAF|
A2 A2 B2 ^AB|A2 A2 F2 A2|G2 G2 EFGE|D2 F2 D2:|

